X: 851
M: C
L: 1/8
K: D
V: 1
|: A |\
defd geaf | gefd e/e/e eB |\
defd eBdA | BA dF D/D/D D :|
V: 2 clef=bass middle=d
z |\
d2d2 d2d2 | d2d2 e2e2 |\
d2d2 d2d2 | A2A2 D2D :|\
|: z |\
d2d2 d2d2 | d2d2 e2e2 |\
d2d2 d2d2 | g2a2 d2d :|

